devices/symbolic/drive-removable-media-usb-pendrive-symbolic.svg

<svg xmlns="http://www.w3.org/2000/svg" viewBox="0 0 16 16">
  <defs id="defs3051">
    <style type="text/css" id="current-color-scheme">
      .ColorScheme-Text {
        color:#4d4d4d;
      }
      </style>
  </defs>
 <path 
     style="fill:#bebebe;fill-opacity:1;stroke:none" 
     class="ColorScheme-Text"
     d="M 2.953125 0.5 C 2.6041342 0.5 2.2699282 0.63757868 2.0449219 0.87304688 C 1.8199156 1.1085151 1.7058541 1.4160686 1.6738281 1.7363281 L 1.6738281 1.7246094 L 0.38867188 11.861328 A 0.47594415 0.47594415 0 0 0 0.38671875 11.921875 L 0.38476562 11.921875 L 0.38671875 11.945312 A 0.47594415 0.47594415 0 0 0 0.39257812 12.003906 L 0.62304688 14.736328 C 0.67063652 15.127381 0.95379094 15.441406 1.4296875 15.441406 L 14.617188 15.441406 C 15.093083 15.441406 15.378192 15.127381 15.425781 14.736328 L 15.613281 11.939453 L 15.615234 11.921875 L 15.613281 11.921875 A 0.47594415 0.47594415 0 0 0 15.611328 11.861328 L 14.326172 1.7246094 A 0.47594415 0.47594415 0 0 0 14.320312 1.6914062 C 14.262056 1.4001182 14.157113 1.1147632 13.943359 0.88085938 C 13.729606 0.64695564 13.395866 0.5 13.046875 0.5 L 2.953125 0.5 z M 2.953125 1.4511719 L 13.046875 1.4511719 C 13.17378 1.4511719 13.195001 1.4718034 13.242188 1.5234375 C 13.288758 1.5743985 13.3477 1.6925336 13.384766 1.8730469 L 14.646484 11.818359 L 14.583984 11.921875 L 11.332031 11.921875 L 10.855469 11.921875 L 1.3476562 11.921875 L 1.34375 11.904297 L 2.6191406 1.8457031 A 0.47594415 0.47594415 0 0 0 2.6210938 1.8320312 C 2.6366556 1.6763944 2.6865299 1.5813197 2.734375 1.53125 C 2.7822201 1.4811803 2.8262192 1.4511719 2.953125 1.4511719 z M 8.0136719 2.7773438 C 7.966475 2.777419 7.9241436 2.796019 7.9023438 2.8261719 L 7.0859375 3.9550781 C 7.0656879 3.9831836 7.067054 4.0177835 7.0898438 4.0449219 C 7.1127379 4.0721524 7.1532062 4.087836 7.1972656 4.0878906 L 7.609375 4.0878906 L 7.6015625 7.3242188 L 6.3300781 6.7070312 L 6.3300781 6.2207031 C 6.5274433 6.1270037 6.6577423 5.9660389 6.6582031 5.7832031 C 6.6590833 5.4930817 6.3330662 5.2581708 5.9296875 5.2578125 C 5.5270763 5.2571707 5.2000873 5.491137 5.1992188 5.78125 C 5.198595 5.9642194 5.3284635 6.1265061 5.5253906 6.2207031 L 5.5253906 6.859375 C 5.5250785 6.9558116 5.5900365 7.0457531 5.7011719 7.0996094 L 7.5996094 8.0214844 L 7.5976562 9.0195312 C 7.3300309 9.1228048 7.1450912 9.3245993 7.1445312 9.5585938 C 7.1439171 9.8977579 7.5249767 10.173101 7.9960938 10.173828 C 8.4677456 10.174405 8.8507506 9.8998195 8.8515625 9.5605469 C 8.8522269 9.3265944 8.6675314 9.1255637 8.4003906 9.0214844 L 8.40625 7.1230469 L 10.214844 6.25 C 10.23655 6.2395041 10.257222 6.2278786 10.275391 6.2148438 C 10.350113 6.1612349 10.392427 6.089268 10.392578 6.0117188 L 10.394531 5.2460938 L 10.550781 5.2460938 C 10.593249 5.2460712 10.63401 5.2344511 10.664062 5.2128906 C 10.694091 5.1913469 10.710783 5.161449 10.710938 5.1308594 L 10.710938 4.328125 C 10.711206 4.2644864 10.641109 4.2129334 10.552734 4.2128906 L 9.4375 4.2109375 C 9.3950322 4.2109601 9.3542475 4.2225969 9.3242188 4.2441406 C 9.2941667 4.2657011 9.2775099 4.2955906 9.2773438 4.3261719 L 9.2753906 5.1289062 C 9.2750293 5.1924778 9.3472186 5.2441649 9.4355469 5.2441406 L 9.5898438 5.2441406 L 9.5898438 5.8554688 L 8.4082031 6.4257812 L 8.4121094 4.0898438 L 8.8242188 4.0898438 C 8.8683014 4.0898984 8.9088025 4.0739149 8.9316406 4.046875 C 8.954665 4.0197015 8.955743 3.9852622 8.9355469 3.9570312 L 8.125 2.8261719 C 8.1033094 2.7961072 8.0608102 2.7774608 8.0136719 2.7773438 z "
     />
</svg>

<svg xmlns="http://www.w3.org/2000/svg" viewBox="0 0 16 16">
  <path fill="#bebebe" d="M2.953.5c-.349 0-.683.138-.908.373-.225.236-.34.543-.371.863v-.011L.389 11.86a.476.476 0 0 0-.002.06H.385l.002.024a.476.476 0 0 0 .006.059l.23 2.732c.048.391.33.705.807.705h13.187c.476 0 .761-.314.809-.705l.187-2.797.002-.017h-.002a.476.476 0 0 0-.002-.06L14.326 1.724a.476.476 0 0 0-.006-.034c-.058-.29-.163-.576-.377-.81a1.229 1.229 0 0 0-.896-.38H2.953zm0 .951h10.094c.127 0 .148.02.195.072.047.051.106.17.143.35l1.261 9.945-.062.104H1.348l-.004-.018L2.619 1.846a.476.476 0 0 0 .002-.014.503.503 0 0 1 .113-.3c.048-.05.092-.08.22-.08zm5.06 1.326c-.047 0-.089.019-.11.05l-.817 1.128a.07.07 0 0 0 .004.09.14.14 0 0 0 .107.043h.412l-.007 3.236-1.272-.617v-.486c.197-.094.328-.255.328-.438.001-.29-.325-.525-.728-.525-.403 0-.73.233-.73.523-.001.183.128.346.325.44v.638c0 .097.065.187.176.24l1.899.922-.002.999c-.268.103-.453.305-.453.539-.001.339.38.614.851.615.472 0 .855-.274.856-.613 0-.234-.184-.435-.452-.54l.006-1.898 1.809-.873a.412.412 0 0 0 .06-.035c.075-.054.117-.126.118-.203l.002-.766h.156a.197.197 0 0 0 .113-.033.103.103 0 0 0 .047-.082v-.803c0-.064-.07-.115-.158-.115L9.437 4.21a.197.197 0 0 0-.113.033.103.103 0 0 0-.047.082l-.002.803c0 .063.072.115.16.115h.155v.611l-1.182.57.004-2.335h.412a.14.14 0 0 0 .108-.043.07.07 0 0 0 .004-.09l-.811-1.13a.138.138 0 0 0-.111-.05z"/>
</svg>
